frontend/public/svg/logos/linkedin.svg

<svg width="161" height="160" viewBox="0 0 161 160" fill="none" xmlns="http://www.w3.org/2000/svg">
<g clip-path="url(#clip0)">
<path d="M112.307 53.906C104.571 46.3706 94.6231 45.5574 86.3447 51.7847C83.0905 54.2322 79.9611 57.6681 76.7779 62.2861C72.7243 68.1721 71.6781 75.3472 70.756 81.6763C69.123 92.8734 70.374 103.992 71.583 114.74C71.7621 116.328 72.1737 119.981 75.7422 119.981C75.8564 119.981 75.9745 119.978 76.0959 119.97C79.6402 119.743 79.6533 116.711 79.6618 114.704C79.6618 114.511 79.6618 114.323 79.6671 114.139C79.7117 111.733 79.6533 109.288 79.5962 106.926C79.5155 103.549 79.4308 100.058 79.6526 96.6585C80.0642 89.5267 80.901 82.4258 82.1585 75.3931C83.252 69.511 86.5291 64.2592 91.3328 60.6914C96.4385 56.8079 100.996 57.2666 105.271 62.09C108.508 65.7115 110.666 70.1667 111.501 74.9514C112.449 80.5113 113.102 86.2253 113.733 91.753C113.979 93.9071 114.225 96.0625 114.488 98.2133L114.376 98.2284C114.221 98.2494 114.079 98.3223 113.973 98.4358C113.866 98.5494 113.802 98.6958 113.791 98.8507C113.724 99.826 113.656 100.801 113.585 101.777C113.416 104.124 113.241 106.553 113.119 108.946L113.104 109.237C112.96 110.971 112.978 112.715 113.155 114.447C113.568 117.51 115.723 119.712 118.518 119.926C121.209 120.131 123.711 118.308 124.74 115.392C124.974 114.701 125.119 113.983 125.173 113.255C126.199 101.59 126.784 86.2372 122.16 70.9327C120.022 63.853 116.798 58.2818 112.307 53.906Z" fill="black"/>
<path d="M48.2102 113.282C48.2529 115.375 48.7742 117.431 49.7343 119.292C50.3368 120.456 52.3393 121.06 53.5765 121.06C53.6165 121.06 53.6552 121.06 53.6939 121.06C54.8557 121.023 56.2912 119.625 56.6076 118.549C57.0937 116.767 57.2908 114.918 57.1916 113.073C56.7978 102.277 56.3442 91.3014 55.9071 80.6877L55.0362 59.4604C54.9706 57.8438 54.8466 54.8337 51.1862 54.5318C51.0659 54.5233 50.9453 54.5459 50.8362 54.5975C48.0245 55.9607 48.1132 58.525 48.1848 60.5859C48.1972 60.9383 48.2096 61.2887 48.2083 61.6306C48.1571 75.7816 48.1085 94.4413 48.2102 113.282Z" fill="black"/>
<path d="M51.3855 33.6173C50.9411 33.2754 50.4818 32.9222 50.0781 32.5547C49.9845 32.4686 49.8682 32.4111 49.7431 32.3887C49.6179 32.3662 49.4889 32.3799 49.3712 32.4281C44.9251 34.2271 44.6416 37.3228 45.1864 39.6029C45.4543 40.5147 45.9129 41.3593 46.5319 42.0806C47.1508 42.8017 47.9159 43.3832 48.7765 43.7864C49.0325 43.8796 49.3036 43.9242 49.576 43.9178C50.9877 43.9178 52.8925 42.9372 53.5108 41.9363C53.9815 41.1155 54.273 40.2044 54.3662 39.2629C54.4596 38.3214 54.3526 37.3709 54.0522 36.4738C53.5685 35.2983 52.4586 34.445 51.3855 33.6173Z" fill="black"/>
<path d="M157.399 26.6781C155.064 7.50644 138.931 -0.1891 123.984 0.696299C115.114 1.21678 106.329 1.49438 95.8674 1.75035C86.3892 1.98269 76.6695 2.1824 68.0944 2.35829C55.7895 2.61164 43.0651 2.87409 30.4312 3.22326C15.9261 3.62494 4.23025 12.9686 1.98098 25.9464C1.07786 31.1544 1.05157 36.4104 1.10736 42.2472C1.27079 59.2929 1.5202 76.516 1.7637 93.1719L1.79061 94.9755C1.88731 101.676 1.98175 108.377 2.07408 115.078C2.08983 116.207 2.12921 117.339 2.1699 118.47L2.17327 118.561C2.3383 121.365 2.31048 124.177 2.08994 126.977C1.30956 134.454 4.17184 142.427 9.74745 148.302C15.9452 154.833 24.7289 158.154 34.4873 157.656C45.1357 157.105 55.9975 157.211 66.5015 157.312L67.2622 157.319C79.7274 157.438 92.4039 157.756 104.679 158.064L110.869 158.218C111.911 158.281 112.945 158.437 113.959 158.687C114.49 158.8 115.022 158.912 115.552 159.003C115.628 159.016 115.705 159.023 115.782 159.023H122.498C122.564 159.023 122.63 159.018 122.695 159.008C124.037 158.812 125.386 158.634 126.73 158.458L126.831 158.445C129.845 158.051 132.962 157.645 135.999 156.985C149.102 154.138 160.204 140.549 160.24 127.311C160.25 124.19 160.261 121.07 160.273 117.95L160.279 116.384C160.345 99.2824 160.417 81.598 160.049 64.1852C159.78 51.5198 158.889 38.9004 157.399 26.6781ZM150.114 126.387C150.154 136.612 141.235 146.186 129.809 148.182C121.054 149.711 112.105 149.191 103.449 148.69C100.237 148.504 96.9142 148.311 93.6129 148.224C89.8645 148.125 86.0479 147.931 82.3357 147.743L82.0075 147.727C80.41 147.646 78.8111 147.565 77.2254 147.493H77.1519C73.1128 147.493 69.073 147.488 65.0333 147.478C60.3458 147.47 55.5853 147.462 50.7999 147.462C44.5089 147.462 39.337 147.475 34.5228 147.504H34.3108C27.2446 147.504 21.4158 145.408 17.4541 141.441C13.3349 137.316 11.1854 131.156 11.2399 123.624C11.3672 105.914 11.2904 87.9848 11.2155 70.645C11.1735 60.7441 11.1302 50.5071 11.125 40.3923C11.0264 34.5669 12.3441 28.8047 14.9646 23.6012C17.9365 17.8858 23.2449 14.8528 31.6697 14.0567C43.4916 12.9409 53.0309 12.3331 61.69 12.1447C86.6885 11.5973 105.927 11.4037 124.068 11.5159C137.3 11.598 144.939 17.8228 147.433 30.5465C150.19 44.6512 150.15 59.1486 150.108 73.1759L150.105 74.3652C150.045 94.262 150.049 110.793 150.112 126.387H150.114Z" fill="black"/>
</g>
<defs>
<clipPath id="clip0">
<rect width="160.146" height="159.49" fill="white" transform="translate(0.69165 0.0527344)"/>
</clipPath>
</defs>
</svg>

<svg xmlns="http://www.w3.org/2000/svg" width="161" height="160" fill="none" viewBox="0 0 161 160"><g fill="#000" clip-path="url(#a)"><path d="M112.307 53.906c-7.736-7.535-17.684-8.349-25.962-2.121-3.254 2.447-6.384 5.883-9.567 10.501-4.054 5.886-5.1 13.061-6.022 19.39-1.633 11.197-.382 22.316.827 33.064.18 1.588.59 5.241 4.16 5.241q.17 0 .353-.011c3.544-.227 3.557-3.259 3.566-5.266q-.001-.29.005-.565c.045-2.406-.014-4.851-.07-7.213-.081-3.377-.166-6.868.056-10.267a180 180 0 0 1 2.505-21.266 23.7 23.7 0 0 1 9.175-14.702c5.106-3.883 9.663-3.424 13.938 1.399a26 26 0 0 1 6.23 12.861c.948 5.56 1.601 11.274 2.232 16.802.246 2.154.492 4.31.755 6.46l-.112.015a.674.674 0 0 0-.585.623q-.1 1.462-.206 2.926c-.169 2.347-.344 4.776-.466 7.169l-.015.291a28.3 28.3 0 0 0 .051 5.21c.413 3.063 2.568 5.265 5.363 5.479 2.691.205 5.193-1.618 6.222-4.534a8.7 8.7 0 0 0 .433-2.137c1.026-11.665 1.611-27.018-3.013-42.322-2.138-7.08-5.362-12.651-9.853-17.027M48.21 113.282a13.7 13.7 0 0 0 1.524 6.01c.603 1.164 2.605 1.768 3.843 1.768h.117c1.162-.037 2.597-1.435 2.914-2.511.486-1.782.683-3.631.584-5.476-.394-10.796-.848-21.772-1.285-32.385l-.87-21.228c-.066-1.616-.19-4.626-3.85-4.928a.7.7 0 0 0-.35.066c-2.812 1.363-2.724 3.927-2.652 5.988.012.352.025.703.023 1.045-.05 14.15-.1 32.81.002 51.651m3.176-79.665a21 21 0 0 1-1.308-1.062.67.67 0 0 0-.707-.127c-4.446 1.8-4.73 4.895-4.185 7.175a6.7 6.7 0 0 0 3.59 4.183c.256.094.528.138.8.132 1.412 0 3.316-.98 3.935-1.982a6.7 6.7 0 0 0 .541-5.462c-.483-1.176-1.593-2.029-2.666-2.857"/><path d="M157.399 26.678C155.064 7.506 138.931-.189 123.984.696c-8.87.52-17.655.798-28.117 1.054-9.478.233-19.198.432-27.773.608-12.304.254-25.029.516-37.663.865-14.505.402-26.2 9.746-28.45 22.723-.903 5.208-.93 10.464-.874 16.301.164 17.046.413 34.269.657 50.925l.027 1.803q.144 10.051.283 20.103c.016 1.129.055 2.261.096 3.392l.003.091a61 61 0 0 1-.083 8.416c-.78 7.477 2.082 15.45 7.657 21.325 6.198 6.531 14.982 9.852 24.74 9.354 10.649-.551 21.51-.445 32.014-.344l.761.007c12.465.119 25.142.437 37.417.745l6.19.154c1.042.063 2.076.219 3.09.469.531.113 1.063.225 1.593.316q.114.02.23.02h6.716q.1 0 .197-.015c1.342-.196 2.691-.374 4.035-.55l.101-.013c3.014-.394 6.131-.8 9.168-1.46 13.103-2.847 24.205-16.436 24.241-29.674q.015-4.681.033-9.361l.006-1.566c.066-17.102.138-34.786-.23-52.199-.269-12.665-1.16-25.285-2.65-37.507m-7.285 99.709c.04 10.225-8.879 19.799-20.305 21.795-8.755 1.529-17.704 1.009-26.36.508-3.212-.186-6.535-.379-9.836-.466-3.748-.099-7.565-.293-11.277-.481l-.329-.016a908 908 0 0 0-4.782-.234h-.073q-6.06 0-12.119-.015a8326 8326 0 0 0-14.233-.016c-6.291 0-11.463.013-16.277.042h-.212c-7.066 0-12.895-2.096-16.857-6.063-4.12-4.125-6.269-10.285-6.214-17.817.127-17.71.05-35.64-.024-52.979-.042-9.9-.086-20.138-.091-30.253a36 36 0 0 1 3.84-16.79c2.971-5.716 8.28-8.75 16.705-9.545 11.822-1.116 21.36-1.724 30.02-1.912 24.999-.548 44.237-.741 62.378-.63 13.232.083 20.871 6.308 23.365 19.032 2.757 14.104 2.717 28.602 2.675 42.629l-.003 1.19c-.06 19.896-.056 36.427.007 52.021z"/></g><defs><clipPath id="a"><path fill="#fff" d="M.692.053h160.146v159.49H.692z"/></clipPath></defs></svg>
